X: 45
M: C
L: 1/8
K: G
{f}g |\
|:\
dgBg dgBg | dBdg f2(ed) | e^cac ecac | edef g2(ufg) |
dgBg dgBg | dBdg f2(ued) | aefd edBG | A<A Bd e2 g2 :|
as, "Cabbage and Bruised Oats."  The "k" in knockit is pronounced,
he's been played dat lang aa ower Shetland an dey're dat mony


